X: 0
T: Dies Irae
Z: Rev. John B. Dykes
Z: Copyright © 2003 by Douglas D. Anderson
Z: Released To The Public Domain
L: 1/4
M: none
Q: 1/4=252
V: P1 name="Staff"
%%MIDI program 1 19
K: F
[V: P1]  F3 E"^(1)" D2 E2 | F2 G2 A2 D2 | d2 d2 c2 D2 | G2 F2 E2 ^F2 | G2 G2 G2 F2 | E2 F2 E2 D2 |"^(2)" F3 B B3 A | G2 A2 B2 F2 | F2 B2 B3 A | G2 A2 B2 F2 | d2 d2 d3 D | E2 G2 (F4 | F2 E2) D4|]
w: Day of wrath! O day of mourn- ing! See ful- filled the pro- phets' warn- ing, Heaven and earth in ash- es burn- ing! Oh what fear man's bo- som rend- eth, When from heaven the Judge des- cend eth, On whose sen- tence all de- pend__ eth.

